;FLAVOR:Marlin
;TIME:9201
;Filament used: 4.41614m
;Layer height: 0.1
;MINX:55.839
;MINY:56.901
;MINZ:0.4
;MAXX:178.096
;MAXY:179.133
;MAXZ:2.92
;Generated with Cura_SteamEngine main
M140 S50
M105
M190 S50
M104 S200
M105
M109 S200
M82 ;absolute extrusion mode
; Ender 3 Custom Start G-code
G92 E0 ; Reset Extruder
G28 ; Home all axes
G1 Z2.0 F3000 ; Move Z Axis up little to prevent scratching of Heat Bed
G1 X0.1 Y20 Z0.3 F5000.0 ; Move to start position
G1 X0.1 Y200.0 Z0.3 F1500.0 E15 ; Draw the first line
G1 X0.4 Y200.0 Z0.3 F5000.0 ; Move to side a little
G1 X0.4 Y20 Z0.3 F1500.0 E30 ; Draw the second line
G92 E0 ; Reset Extruder
G1 Z2.0 F3000 ; Move Z Axis up little to prevent scratching of Heat Bed
G1 X5 Y20 Z0.3 F5000.0 ; Move over to prevent blob squish
G92 E0
G92 E0
G1 F2700 E-5
;LAYER_COUNT:20
;LAYER:-7
M107
G0 F9000 X72.721 Y76.642 Z0.4
;TYPE:SUPPORT-INTERFACE
G1 F2700 E0
G1 F1125 X69.079 Y81.052 E0.76092
G1 X68.513 Y81.777 E0.88329
G1 X67.972 Y82.567 E1.01067
G1 X64.858 Y87.482 E1.78476
G1 X64.434 Y88.201 E1.89581
G1 X63.952 Y89.141 E2.03635
G1 X61.533 Y94.289 E2.79309
G1 X61.179 Y95.106 E2.91155
G1 X60.848 Y96.013 E3.04
G1 X59.06 Y101.53 E3.81157
G1 X58.863 Y102.195 E3.90384
G1 X58.619 Y103.241 E4.04674
G1 X57.523 Y108.988 E4.8251
G1 X57.391 Y109.825 E4.93783
G1 X57.287 Y110.891 E5.08032
G1 X56.933 Y116.535 E5.83268
G1 X56.904 Y117.431 E5.95195
G1 X56.933 Y118.469 E6.0901
G1 X57.289 Y124.144 E6.84659
G1 X57.353 Y124.87 E6.94355
G1 X57.53 Y126.048 E7.10203
G1 X58.603 Y131.685 E7.86544
G1 X58.785 Y132.503 E7.97693
G1 X59.061 Y133.479 E8.11187
G1 X60.815 Y138.891 E8.86876
G1 X61.065 Y139.6 E8.96878
G1 X61.535 Y140.716 E9.12988
G1 X63.966 Y145.889 E9.8903
G1 X64.354 Y146.651 E10.00407
G1 X64.836 Y147.479 E10.13153
G1 X67.977 Y152.441 E10.91282
G1 X68.33 Y152.968 E10.99721
G1 X69.056 Y153.923 E11.15681
G1 X72.706 Y158.343 E11.91943
G1 X73.156 Y158.861 E12.01072
G1 X74.006 Y159.726 E12.17206
G1 X78.12 Y163.597 E12.92359
G1 X78.684 Y164.103 E13.0244
G1 X79.559 Y164.796 E13.1729
G1 X84.257 Y168.217 E13.94607
G1 X84.828 Y168.611 E14.03837
G1 X85.858 Y169.231 E14.19831
G1 X90.846 Y171.979 E14.95596
G1 X91.47 Y172.302 E15.04944
G1 X92.595 Y172.802 E15.21323
G1 X97.875 Y174.896 E15.96891
G1 X98.548 Y175.143 E16.06428
G1 X99.726 Y175.494 E16.22781
G1 X105.274 Y176.921 E16.98995
G1 X105.932 Y177.072 E17.07976
G1 X107.118 Y177.268 E17.23969
G1 X112.729 Y177.977 E17.99212
G1 X113.617 Y178.063 E18.11081
G1 X114.602 Y178.098 E18.24194
G1 X120.392 Y178.1 E19.01224
G1 X121.238 Y178.071 E19.12486
G1 X122.196 Y177.986 E19.25281
G1 X127.901 Y177.265 E20.01785
G1 X128.638 Y177.154 E20.117
G1 X129.739 Y176.917 E20.26684
G1 X135.295 Y175.489 E21.03003
G1 X136.177 Y175.234 E21.15218
G1 X137.129 Y174.893 E21.28672
G1 X142.439 Y172.787 E22.04669
G1 X143.228 Y172.446 E22.16105
G1 X144.102 Y172.006 E22.29123
G1 X149.165 Y169.22 E23.06006
G1 X149.793 Y168.852 E23.15689
G1 X150.791 Y168.183 E23.31674
G1 X155.41 Y164.821 E24.0768
G1 X155.961 Y164.398 E24.16922
G1 X156.82 Y163.651 E24.32066
G1 X161.052 Y159.671 E25.09356
G1 X161.623 Y159.097 E25.20128
G1 X162.281 Y158.358 E25.33292
G1 X165.93 Y153.939 E26.09536
G1 X166.395 Y153.349 E26.1953
G1 X167.028 Y152.434 E26.34332
G1 X170.14 Y147.52 E27.11716
G1 X170.566 Y146.799 E27.22857
G1 X171.048 Y145.861 E27.36887
G1 X173.467 Y140.711 E28.12585
G1 X173.826 Y139.881 E28.24616
G1 X174.182 Y138.894 E28.38575
G1 X175.94 Y133.471 E29.14419
G1 X176.175 Y132.659 E29.25666
G1 X176.385 Y131.741 E29.38194
G1 X177.477 Y126.011 E30.15798
G1 X177.61 Y125.174 E30.27074
G1 X177.704 Y124.229 E30.39708
G1 X178.067 Y118.465 E31.16544
G1 X178.096 Y117.569 E31.28471
G1 X178.067 Y116.531 E31.42286
G1 X177.708 Y110.815 E32.18482
G1 X177.647 Y110.129 E32.27645
G1 X177.489 Y109.063 E32.41982
G1 X176.397 Y103.315 E33.19821
G1 X176.215 Y102.497 E33.3097
G1 X175.931 Y101.493 E33.44851
G1 X174.185 Y96.108 E34.20165
G1 X173.935 Y95.399 E34.30167
G1 X173.465 Y94.284 E34.46265
G1 X171.027 Y89.096 E35.22528
G1 X170.647 Y88.349 E35.33678
G1 X170.161 Y87.514 E35.46532
G1 X167.087 Y82.66 E36.2297
G1 X166.668 Y82.032 E36.33014
G1 X165.998 Y81.144 E36.47813
G1 X162.295 Y76.658 E37.25202
G1 X161.735 Y76.023 E37.36466
G1 X160.983 Y75.265 E37.50671
G1 X156.88 Y71.403 E38.25635
G1 X156.315 Y70.897 E38.35726
G1 X155.44 Y70.204 E38.50576
G1 X150.743 Y66.783 E39.27882
G1 X150.171 Y66.388 E39.3713
G1 X149.142 Y65.769 E39.53106
G1 X144.156 Y63.022 E40.28842
G1 X143.361 Y62.618 E40.40706
G1 X142.422 Y62.206 E40.54348
G1 X137.127 Y60.104 E41.30141
G1 X136.295 Y59.804 E41.41907
G1 X135.277 Y59.506 E41.56019
G1 X129.728 Y58.079 E42.32245
G1 X128.937 Y57.902 E42.43029
G1 X127.884 Y57.732 E42.5722
G1 X122.184 Y57.013 E43.33654
G1 X121.384 Y56.937 E43.44345
G1 X120.398 Y56.902 E43.57471
G1 X114.607 Y56.901 E44.34515
G1 X113.762 Y56.929 E44.45763
G1 X112.804 Y57.014 E44.58558
G1 X107.099 Y57.735 E45.35061
G1 X106.362 Y57.846 E45.44977
G1 X105.261 Y58.083 E45.5996
G1 X99.602 Y59.538 E46.37697
G1 X98.824 Y59.766 E46.48483
G1 X97.871 Y60.107 E46.61949
G1 X92.562 Y62.213 E47.37934
G1 X91.772 Y62.554 E47.49382
G1 X90.899 Y62.993 E47.62382
G1 X85.835 Y65.78 E48.39283
G1 X85.209 Y66.147 E48.48937
G1 X84.211 Y66.817 E48.64929
G1 X79.592 Y70.18 E49.40943
G1 X79.039 Y70.604 E49.50213
G1 X78.181 Y71.349 E49.65331
G1 X73.966 Y75.314 E50.42319
G1 X73.466 Y75.81 E50.51689
G1 X72.721 Y76.642 E50.66547
G1 F2700 E45.66547
G0 F9000 X100.037 Y105.208
G1 F2700 E50.66547
G1 F1125 X100.414 Y104.69 E50.7507
G1 X101.71 Y103.121 E51.02145
G1 X102.166 Y102.636 E51.11001
G1 X103.64 Y101.253 E51.37892
G1 X104.156 Y100.828 E51.46785
G1 X105.792 Y99.641 E51.73676
G1 X106.344 Y99.291 E51.82372
G1 X108.124 Y98.312 E52.09399
G1 X108.708 Y98.039 E52.17975
G1 X110.62 Y97.283 E52.45329
G1 X111.225 Y97.087 E52.5379
G1 X113.201 Y96.58 E52.8093
G1 X113.818 Y96.464 E52.89282
G1 X115.848 Y96.208 E53.16504
G1 X116.475 Y96.169 E53.24861
G1 X118.527 Y96.169 E53.52161
G1 X119.165 Y96.209 E53.60666
G1 X121.184 Y96.464 E53.8774
G1 X121.826 Y96.588 E53.96439
G1 X123.799 Y97.096 E54.23544
G1 X124.404 Y97.293 E54.32009
G1 X126.305 Y98.044 E54.59202
G1 X126.897 Y98.323 E54.67909
G1 X128.68 Y99.306 E54.94996
G1 X129.229 Y99.655 E55.03651
G1 X130.865 Y100.844 E55.30558
G1 X131.361 Y101.252 E55.39102
G1 X132.843 Y102.644 E55.66152
G1 X133.297 Y103.132 E55.7502
G1 X134.594 Y104.701 E56.02102
G1 X134.976 Y105.228 E56.10762
G1 X136.06 Y106.936 E56.37675
G1 X136.372 Y107.505 E56.46309
G1 X137.229 Y109.324 E56.7306
G1 X137.484 Y109.972 E56.82325
G1 X138.106 Y111.891 E57.09163
G1 X138.268 Y112.52 E57.17804
G1 X138.646 Y114.504 E57.44674
G1 X138.729 Y115.166 E57.5355
G1 X138.854 Y117.162 E57.80157
G1 X138.854 Y117.84 E57.89177
G1 X138.728 Y119.845 E58.15905
G1 X138.646 Y120.497 E58.24647
G1 X138.261 Y122.508 E58.51888
G1 X138.097 Y123.133 E58.60484
G1 X137.474 Y125.051 E58.87314
G1 X137.228 Y125.677 E58.96262
G1 X136.362 Y127.516 E59.23305
G1 X136.045 Y128.087 E59.31994
G1 X134.963 Y129.792 E59.58859
G1 X134.586 Y130.31 E59.67383
G1 X133.29 Y131.879 E59.94457
G1 X132.834 Y132.364 E60.03314
G1 X131.36 Y133.747 E60.30204
G1 X130.844 Y134.172 E60.39098
G1 X129.208 Y135.359 E60.65989
G1 X128.656 Y135.709 E60.74684
G1 X126.876 Y136.688 E61.01711
G1 X126.292 Y136.961 E61.10288
G1 X124.38 Y137.717 E61.37641
G1 X123.775 Y137.913 E61.46102
G1 X121.799 Y138.42 E61.73242
G1 X121.182 Y138.536 E61.81595
G1 X119.152 Y138.792 E62.08816
G1 X118.525 Y138.831 E62.17174
G1 X116.473 Y138.831 E62.44474
G1 X115.835 Y138.791 E62.52978
G1 X113.816 Y138.536 E62.80052
G1 X113.174 Y138.412 E62.88752
G1 X111.201 Y137.904 E63.15857
G1 X110.596 Y137.707 E63.24321
G1 X108.695 Y136.956 E63.51514
G1 X108.1 Y136.676 E63.60263
G1 X106.32 Y135.694 E63.87309
G1 X105.771 Y135.345 E63.95964
G1 X104.134 Y134.155 E64.22889
G1 X103.638 Y133.747 E64.31433
G1 X102.156 Y132.355 E64.58484
G1 X101.702 Y131.867 E64.67351
G1 X100.405 Y130.298 E64.94434
G1 X100.023 Y129.771 E65.03093
G1 X98.94 Y128.064 E65.29988
G1 X98.627 Y127.493 E65.38651
G1 X97.761 Y125.651 E65.65731
G1 X97.516 Y125.028 E65.74637
G1 X96.894 Y123.109 E66.01475
G1 X96.732 Y122.48 E66.10116
G1 X96.354 Y120.495 E66.36999
G1 X96.271 Y119.833 E66.45876
G1 X96.146 Y117.839 E66.72456
G1 X96.146 Y117.186 E66.81144
G1 X96.272 Y115.155 E67.08216
G1 X96.354 Y114.503 E67.16959
G1 X96.739 Y112.492 E67.44199
G1 X96.903 Y111.867 E67.52796
G1 X97.526 Y109.949 E67.79625
G1 X97.772 Y109.323 E67.88573
G1 X98.638 Y107.484 E68.15617
G1 X98.955 Y106.913 E68.24305
G1 X100.037 Y105.208 E68.51171
G0 F9000 X100.023 Y104.548
G1 F1125 X72.73 Y77.256 E73.64673
G0 F9000 X73.79 Y76.052
G1 F1125 X101.04 Y103.303 E78.77385
G0 F9000 X102.125 Y102.125
G1 F1125 X74.944 Y74.944 E83.88789
G0 F9000 X76.11 Y73.847
G1 F1125 X103.292 Y101.03 E89.00222
G0 F9000 X104.563 Y100.037
G1 F1125 X77.275 Y72.749 E94.13639
G0 F9000 X78.441 Y71.653
G1 F1125 X105.89 Y99.102 E99.30086
G0 F9000 X107.338 Y98.287
G1 F1125 X79.672 Y70.621 E104.50616
G0 F9000 X80.978 Y69.664
G1 F1125 X108.861 Y97.547 E109.75228
G0 F9000 X110.482 Y96.906
G1 F1125 X82.288 Y68.711 E115.05701
G0 F9000 X83.597 Y67.758
G1 F1125 X112.25 Y96.411 E120.44801
G0 F9000 X114.124 Y96.022
G1 F1125 X84.922 Y66.82 E125.9423
G0 F9000 X86.329 Y65.965
G1 F1125 X116.152 Y95.788 E131.55343
G0 F9000 X118.396 Y95.769
G1 F1125 X87.789 Y65.162 E137.31207
G0 F9000 X89.248 Y64.358
G1 F1125 X120.917 Y96.027 E143.27052
G0 F9000 X123.848 Y96.695
G1 F1125 X90.707 Y63.554 E149.50592
G0 F9000 X92.215 Y62.799
G1 F1125 X127.755 Y98.34 E156.19279
G1 F2700 E151.19279
G0 F9000 X127.05 Y99.624
G0 X135.136 Y107.468
G0 X136.714 Y107.299
G1 F2700 E156.19279
G1 F1125 X172.098 Y142.682 E162.85011
G0 F9000 X171.375 Y144.222
G1 F1125 X138.277 Y111.124 E169.07743
G0 F9000 X138.971 Y114.081
G1 F1125 X170.65 Y145.76 E175.03776
G0 F9000 X169.85 Y147.223
G1 F1125 X139.218 Y116.59 E180.80119
G0 F9000 X139.191 Y118.826
G1 F1125 X168.975 Y148.61 E186.40499
G0 F9000 X168.098 Y149.996
G1 F1125 X138.979 Y120.877 E191.88366
G0 F9000 X138.605 Y122.766
G1 F1125 X167.22 Y151.381 E197.26751
G0 F9000 X166.324 Y152.747
G1 F1125 X138.073 Y124.497 E202.58277
G0 F9000 X137.452 Y126.138
G1 F1125 X165.339 Y154.026 E207.82974
G0 F9000 X164.316 Y155.265
G1 F1125 X136.727 Y127.676 E213.02055
G0 F9000 X135.88 Y129.092
G1 F1125 X163.292 Y156.504 E218.17806
G0 F9000 X162.269 Y157.744
G1 F1125 X134.976 Y130.451 E223.31317
G0 F9000 X133.958 Y131.695
G1 F1125 X161.209 Y158.946 E228.44039
G0 F9000 X160.056 Y160.056
G1 F1125 X132.874 Y132.874 E233.55462
G0 F9000 X131.707 Y133.969
G1 F1125 X158.89 Y161.153 E238.66913
G0 F9000 X157.724 Y162.249
G1 F1125 X130.436 Y134.961 E243.80331
G0 F9000 X129.108 Y135.896
G1 F1125 X156.558 Y163.346 E248.96796
G0 F9000 X155.327 Y164.378
G1 F1125 X127.661 Y136.712 E254.17326
G0 F9000 X126.137 Y137.451
G1 F1125 X154.021 Y165.335 E259.41957
G0 F9000 X152.711 Y166.288
G1 F1125 X124.516 Y138.093 E264.7244
G0 F9000 X122.749 Y138.588
G1 F1125 X151.402 Y167.241 E270.11539
G0 F9000 X150.076 Y168.178
G1 F1125 X120.874 Y138.976 E275.60968
G0 F9000 X118.846 Y139.21
G1 F1125 X148.669 Y169.034 E281.22091
G0 F9000 X147.21 Y169.837
G1 F1125 X116.603 Y139.23 E286.97955
G0 F9000 X114.081 Y138.971
G1 F1125 X145.75 Y170.641 E292.93809
G0 F9000 X144.291 Y171.444
G1 F1125 X111.15 Y138.303 E299.17349
G0 F9000 X107.244 Y136.659
G1 F1125 X142.784 Y172.2 E305.86036
G0 F9000 X141.177 Y172.855
G1 F1125 X62.178 Y93.856 E320.72384
G0 F9000 X62.901 Y92.317
G1 F1125 X98.282 Y127.698 E327.3807
G0 F9000 X96.722 Y123.875
G1 F1125 X63.624 Y90.776 E333.60811
G0 F9000 X64.349 Y89.239
G1 F1125 X96.027 Y120.918 E339.56834
G0 F9000 X95.781 Y118.408
G1 F1125 X65.147 Y87.775 E345.33197
G0 F9000 X66.023 Y86.387
G1 F1125 X95.808 Y116.173 E350.93604
G0 F9000 X96.02 Y114.122
G1 F1125 X66.9 Y85.002 E356.4149
G0 F9000 X67.778 Y83.617
G1 F1125 X96.394 Y112.233 E361.79894
G0 F9000 X96.925 Y110.502
G1 F1125 X68.672 Y82.249 E367.11468
G0 F9000 X69.66 Y80.974
G1 F1125 X97.546 Y108.86 E372.36136
G0 F9000 X98.271 Y107.322
G1 F1125 X70.684 Y79.735 E377.5518
G0 F9000 X71.707 Y78.495
G1 F1125 X99.119 Y105.907 E382.7093
G1 F2700 E377.7093
G0 F9000 X61.486 Y95.427
G1 F2700 E382.7093
G1 F1125 X139.557 Y173.498 E397.39818
G0 F9000 X137.937 Y174.141
G1 F1125 X60.91 Y97.114 E411.89064
G0 F9000 X60.356 Y98.823
G1 F1125 X136.298 Y174.764 E426.17886
G0 F9000 X134.539 Y175.269
G1 F1125 X59.802 Y100.532 E440.24046
G0 F9000 X59.261 Y102.254
G1 F1125 X132.739 Y175.731 E454.06508
G0 F9000 X130.939 Y176.194
G1 F1125 X58.858 Y104.113 E467.62696
G0 F9000 X58.496 Y106.014
G1 F1125 X129.121 Y176.639 E480.91489
G0 F9000 X127.173 Y176.953
G1 F1125 X58.134 Y107.914 E493.90443
G0 F9000 X57.793 Y109.836
G1 F1125 X125.163 Y177.206 E506.57994
G0 F9000 X123.154 Y177.46
G1 F1125 X57.622 Y111.927 E518.90973
G0 F9000 X57.489 Y114.057
G1 F1125 X121.106 Y177.674 E530.87913
G0 F9000 X118.866 Y177.698
G1 F1125 X57.355 Y116.186 E542.45237
G0 F9000 X57.332 Y118.426
G1 F1125 X116.603 Y177.697 E553.60408
G0 F9000 X114.329 Y177.686
G1 F1125 X57.482 Y120.839 E564.29971
G0 F9000 X57.633 Y123.252
G1 F1125 X111.84 Y177.459 E574.49864
G0 F9000 X109.25 Y177.133
G1 F1125 X57.892 Y125.775 E584.16153
G0 F9000 X58.414 Y128.559
G1 F1125 X106.637 Y176.782 E593.23458
G0 F9000 X103.691 Y176.099
G1 F1125 X58.947 Y131.354 E601.65315
G0 F9000 X59.804 Y134.474
G1 F1125 X100.645 Y175.315 E609.3373
G0 F9000 X97.304 Y174.238
G1 F1125 X60.888 Y137.822 E616.18888
G0 F9000 X62.38 Y141.576
G1 F1125 X93.555 Y172.751 E622.05439
G1 F2700 E617.05439
G0 F9000 X93.016 Y174.113
G0 X91.204 Y173.344
G0 X88.393 Y171.844
G0 X89.1 Y170.559
G1 F2700 E622.05439
G1 F1125 X64.398 Y145.857 E626.70201
G1 F2700 E621.70201
G0 F9000 X63.339 Y147.016
G0 X63.518 Y147.327
G0 X66.747 Y152.49
G0 X67.984 Y151.706
G1 F2700 E626.70201
G1 F1125 X83.31 Y167.032 E629.58557
G1 F2700 E624.58557
G0 F9000 X82.448 Y168.218
G0 X84.399 Y169.601
G0 X91.191 Y173.348
G0 X98.369 Y176.205
G0 X105.872 Y178.145
G0 X113.554 Y179.126
G0 X121.312 Y179.133
G0 X128.993 Y178.171
G0 X136.513 Y176.243
G0 X143.688 Y173.406
G0 X150.498 Y169.665
G0 X156.765 Y165.114
G0 X162.406 Y159.82
G0 X167.351 Y153.845
G0 X171.503 Y147.306
G0 X174.149 Y141.765
G0 X172.821 Y141.142
G1 F2700 E629.58557
G1 F1125 X93.822 Y62.144 E644.44896
G0 F9000 X95.442 Y61.501
G1 F1125 X173.512 Y139.571 E659.13765
G0 F9000 X174.088 Y137.884
G1 F1125 X97.062 Y60.858 E673.62992
G0 F9000 X98.702 Y60.235
G1 F1125 X174.641 Y136.175 E687.91776
G0 F9000 X175.196 Y134.466
G1 F1125 X100.46 Y59.73 E701.97917
G0 F9000 X102.259 Y59.267
G1 F1125 X175.734 Y132.742 E715.80333
G0 F9000 X176.139 Y130.884
G1 F1125 X104.059 Y58.805 E729.36492
G0 F9000 X105.877 Y58.359
G1 F1125 X176.502 Y128.984 E742.65286
G0 F9000 X176.865 Y127.084
G1 F1125 X107.826 Y58.046 E755.64229
G0 F9000 X109.835 Y57.792
G1 F1125 X177.205 Y125.162 E768.31781
G0 F9000 X177.376 Y123.07
G1 F1125 X111.844 Y57.538 E780.6475
G0 F9000 X113.893 Y57.325
G1 F1125 X177.509 Y120.941 E792.61671
G0 F9000 X177.643 Y118.812
G1 F1125 X116.133 Y57.301 E804.18977
G0 F9000 X118.395 Y57.301
G1 F1125 X177.666 Y116.572 E815.34148
G0 F9000 X177.517 Y114.16
G1 F1125 X120.668 Y57.311 E826.03749
G0 F9000 X123.158 Y57.539
G1 F1125 X177.365 Y111.745 E836.23632
G0 F9000 X177.109 Y109.226
G1 F1125 X125.749 Y57.866 E845.89958
G0 F9000 X128.359 Y58.214
G1 F1125 X176.582 Y106.437 E854.97263
G0 F9000 X176.051 Y103.644
G1 F1125 X131.306 Y58.899 E863.3913
G0 F9000 X134.352 Y59.681
G1 F1125 X175.196 Y100.525 E871.07601
G0 F9000 X174.11 Y97.177
G1 F1125 X137.692 Y60.759 E877.92797
G0 F9000 X141.444 Y62.248
G1 F1125 X172.618 Y93.422 E883.79329
G1 F2700 E878.79329
G0 F9000 X173.944 Y92.798
G0 X171.984 Y88.629
G0 X170.601 Y89.142
G1 F2700 E883.79329
G1 F1125 X145.898 Y64.44 E888.44101
G1 F2700 E883.44101
G0 F9000 X146.605 Y63.155
G0 X150.755 Y65.498
G0 X152.55 Y66.781
G0 X151.688 Y67.967
G1 F2700 E888.44101
G1 F1125 X167.012 Y83.291 E891.32419
G1 F2700 E886.32419
G0 F300 X167.012 Y83.291 Z0.55
G0 F9000 X106.071 Y98.989
;TIME_ELAPSED:382.496395
;LAYER:-6
;TYPE:SUPPORT
G1 F2700 E891.32419
G1 F1125 X105.556 Y99.315 E891.35459
G1 X103.899 Y100.519 E891.45678
